#define splash_width 112
#define splash_height 29
static const unsigned char splash_bits[] = {
   0x00, 0x00, 0x00, 0x00, 0x00, 0x00, 0x00, 0x00, 0x00, 0x00, 0x00, 0x00,
   0x00, 0x00, 0x00, 0x00, 0x00, 0x00, 0x00, 0x00, 0x00, 0x00, 0x00, 0x00,
   0x00, 0x00, 0x00, 0x00, 0x00, 0x00, 0x00, 0x00, 0x00, 0x00, 0x00, 0x00,
   0x00, 0x00, 0x00, 0x00, 0x00, 0x00, 0x00, 0x00, 0x00, 0x00, 0x00, 0x00,
   0x00, 0x00, 0x00, 0x00, 0x00, 0x00, 0x00, 0x00, 0x00, 0x00, 0x00, 0x00,
   0x00, 0x00, 0x00, 0x00, 0x00, 0x00, 0x00, 0x00, 0x00, 0x00, 0x00, 0x00,
   0x18, 0x00, 0x00, 0x00, 0x00, 0x00, 0x00, 0x00, 0x00, 0x00, 0x00, 0x00,
   0x00, 0x00, 0x3c, 0x00, 0x00, 0x00, 0x00, 0x00, 0x00, 0x00, 0xfe, 0x00,
   0x00, 0x00, 0x00, 0x00, 0x3c, 0x00, 0x00, 0x00, 0x00, 0x00, 0x00, 0xe0,
   0xff, 0x01, 0x00, 0x00, 0x00, 0x00, 0x3c, 0x00, 0x00, 0x00, 0x00, 0x00,
   0x00, 0xf0, 0x87, 0x03, 0xf0, 0x07, 0x00, 0x00, 0x3c, 0x00, 0x00, 0x00,
   0x00, 0x00, 0x00, 0x78, 0x00, 0x07, 0xfc, 0x1f, 0x00, 0x00, 0xff, 0x00,
   0x00, 0x00, 0x00, 0xf0, 0x01, 0x38, 0x00, 0x1e, 0xfc, 0x1f, 0xf0, 0x8f,
   0xff, 0xe1, 0x1f, 0xe0, 0x0f, 0xfc, 0x07, 0x1c, 0x00, 0x3c, 0x1e, 0x3c,
   0xf8, 0x9f, 0xff, 0xf1, 0x3f, 0xfc, 0x3f, 0xfe, 0x0f, 0x0e, 0x00, 0x78,
   0x0e, 0x38, 0xfc, 0x1f, 0xff, 0xf8, 0x7f, 0xfe, 0x3f, 0x1e, 0x1f, 0x07,
   0x00, 0x70, 0x3e, 0x10, 0x3c, 0x1c, 0x3c, 0x38, 0x70, 0x3e, 0x7c, 0x0f,
   0x9e, 0x83, 0x01, 0xe3, 0xfc, 0x00, 0x3c, 0x18, 0x3c, 0x1c, 0xe0, 0x1e,
   0x70, 0x07, 0xfc, 0x81, 0x01, 0xe3, 0xf8, 0x07, 0xfc, 0x00, 0x3c, 0x1c,
   0xe0, 0x1e, 0x70, 0xff, 0xff, 0x81, 0x01, 0xc3, 0xe0, 0x0f, 0xf8, 0x07,
   0x3c, 0x1c, 0xe0, 0x1e, 0x70, 0xff, 0xbf, 0x81, 0x01, 0xc3, 0x80, 0x1f,
   0xe0, 0x0f, 0x3c, 0x1c, 0xe0, 0x1e, 0x70, 0xff, 0xbf, 0x03, 0x00, 0xc0,
   0x01, 0x3c, 0x00, 0x1f, 0x3c, 0x1c, 0xe0, 0x1e, 0x70, 0x07, 0x00, 0x83,
   0x83, 0xc3, 0x0d, 0x38, 0x1c, 0x3c, 0x3c, 0x38, 0x70, 0x1e, 0x70, 0x07,
   0x18, 0x87, 0xff, 0xc3, 0x0f, 0x3c, 0x3c, 0x1e, 0x38, 0xf8, 0x7c, 0x1e,
   0x70, 0x0f, 0x1e, 0x06, 0xfe, 0xc0, 0xfe, 0x3f, 0xfc, 0x1f, 0xf8, 0xf1,
   0x3f, 0x1e, 0x70, 0xfe, 0x1f, 0xfe, 0xff, 0xff, 0xfc, 0x1f, 0xf8, 0x0f,
   0xf8, 0xe1, 0x1f, 0x1e, 0x70, 0xfc, 0x0f, 0xfe, 0xff, 0x7f, 0xf8, 0x07,
   0xe0, 0x03, 0xf0, 0x01, 0x03, 0x0c, 0x70, 0xf8, 0x03, 0xfc, 0xff, 0x3f,
   0x00, 0x00, 0x00, 0x00, 0x00, 0x00, 0x00, 0x00, 0x00, 0x40, 0x00, 0x00,
   0x00, 0x00, 0x00, 0x00, 0x00, 0x00, 0x00, 0x00, 0x00, 0x00, 0x00, 0x00,
   0x00, 0x00, 0x00, 0x00, 0x00, 0x00, 0x00, 0x00, 0x00, 0x00, 0x00, 0x00,
   0x00, 0x00, 0x00, 0x00, 0x00, 0x00, 0x00, 0x00, 0x00, 0x00, 0x00, 0x00,
   0x00, 0x00, 0x00, 0x00, 0x00, 0x00, 0x00, 0x00, 0x00, 0x00 };
